plasma/desktoptheme/Materia/widgets/scrollbar.svg

<?xml version="1.0" encoding="UTF-8"?>
<svg width="25" height="64" version="1" xmlns="http://www.w3.org/2000/svg">
 <rect id="slider-center" x="5" y="5" width="1" height="10" fill="#fff" opacity=".32"/>
 <g id="slider-right" transform="matrix(.75 0 0 1 .25 -2)">
  <path d="m9 7v10h2.6667v-10z" fill="#fff" opacity=".32"/>
  <rect transform="matrix(1.3333 0 0 1 -25.667 -13)" x="29" y="20" width="1" height="10" opacity=".01"/>
 </g>
 <g id="slider-topright" transform="matrix(.75 0 0 .75 .25 -1.25)">
  <rect transform="matrix(1.3333 0 0 1.3333 -25.667 -18.333)" x="26" y="15" width="4" height="4" opacity=".01"/>
  <path d="m9 3v4h2.6667c0-2.216-0.45067-4-2.6667-4z" fill="#fff" opacity=".32"/>
 </g>
 <g id="slider-bottomright" transform="matrix(.75 0 0 .75 .25 3.25)">
  <rect transform="matrix(1.3333 0 0 1.3333 -25.667 -24.333)" x="26" y="31" width="4" height="4" opacity=".01"/>
  <path d="m9 21v-4h2.6667c0 2.216-0.45067 4-2.6667 4z" fill="#fff" opacity=".32"/>
 </g>
 <g id="slider-left" transform="matrix(-.75 0 0 1 10.75 -2)">
  <path d="m9 7v10h2.6667v-10z" fill="#fff" opacity=".32"/>
  <rect transform="matrix(-1.3333 0 0 1 39.667 -13)" x="19" y="20" width="1" height="10" opacity=".01"/>
 </g>
 <g id="slider-topleft" transform="matrix(-.75 0 0 .75 10.75 -1.25)">
  <rect transform="matrix(-1.3333 0 0 1.3333 39.667 -18.333)" x="19" y="15" width="4" height="4" opacity=".01"/>
  <path d="m9 3v4h2.6667c0-2.216-0.45067-4-2.6667-4z" fill="#fff" opacity=".32"/>
 </g>
 <g id="slider-bottomleft" transform="matrix(-.75 0 0 .75 10.75 3.25)">
  <rect transform="matrix(-1.3333 0 0 1.3333 39.667 -24.333)" x="19" y="31" width="4" height="4" opacity=".01"/>
  <path d="m9 21v-4h2.6667c0 2.216-0.45067 4-2.6667 4z" fill="#fff" opacity=".32"/>
 </g>
 <g id="slider-top" transform="matrix(0 -.75 -.1 0 6.7 10.75)">
  <rect transform="matrix(0 -10 -1.3333 0 34.333 257)" x="24" y="15" width="1" height="4" opacity=".01"/>
  <path d="m9 7v10h4v-10z" fill="#fff" opacity=".32"/>
 </g>
 <g id="slider-bottom" transform="matrix(0 .75 -.1 0 6.7 9.25)">
  <rect transform="matrix(0 -10 1.3333 0 -32.333 257)" x="24" y="31" width="1" height="4" opacity=".001"/>
  <path d="m9 7v10h4v-10z" fill="#fff" opacity=".32"/>
 </g>
 <rect id="hint-scrollbar-size" x="15" y="44" width="8" height="8" rx="0" ry="8" fill="#f0f"/>
 <rect id="hint-tile-center" x="18" y="54" width="2" height="2" rx="0" ry="2" fill="#f0f"/>
 <g id="background-vertical-right" transform="matrix(.75 0 0 1 14.25 -2)">
  <path transform="matrix(1.3333 0 0 1 -19 2)" d="m21 5v10h3 1v-10h-1-3z" opacity=".01"/>
 </g>
 <g id="background-vertical-topright" transform="matrix(.75 0 0 .75 14.25 -1.25)">
  <rect transform="matrix(1.3333 0 0 1.3333 -44.333 -18.333)" x="40" y="15" width="4" height="4" opacity=".01"/>
 </g>
 <g id="background-vertical-bottomright" transform="matrix(.75 0 0 .75 14.25 3.25)">
  <rect transform="matrix(1.3333 0 0 1.3333 -44.333 -24.333)" x="40" y="31" width="4" height="4" opacity=".01"/>
 </g>
 <g id="background-vertical-left" transform="matrix(-.75 0 0 1 24.75 -2)">
  <path transform="matrix(-1.3333 0 0 1 33 2)" d="m14 5v10h1 3v-10h-3-1z" opacity=".01"/>
 </g>
 <g id="background-vertical-topleft" transform="matrix(-.75 0 0 .75 24.75 -1.25)">
  <rect transform="matrix(-1.3333 0 0 1.3333 58.333 -18.333)" x="33" y="15" width="4" height="4" opacity=".01"/>
 </g>
 <g id="background-vertical-bottomleft" transform="matrix(-.75 0 0 .75 24.75 3.25)">
  <rect transform="matrix(-1.3333 0 0 1.3333 58.333 -24.333)" x="33" y="31" width="4" height="4" opacity=".01"/>
 </g>
 <g id="background-vertical-top" transform="matrix(0 -.75 -.1 0 20.7 10.75)">
  <rect transform="matrix(0 -10 -1.3333 0 34.333 397)" x="38" y="15" width="1" height="4" opacity=".01"/>
 </g>
 <g id="background-vertical-bottom" transform="matrix(0 .75 -.1 0 20.7 9.25)">
  <rect transform="matrix(0 -10 1.3333 0 -32.333 397)" x="38" y="31" width="1" height="4" opacity=".01"/>
 </g>
 <rect id="sunken-slider-center" x="5" y="49" width="1" height="10" fill="#fff" opacity=".75"/>
 <g id="sunken-slider-right" transform="matrix(.75 0 0 1 .25 42)">
  <path d="m9 7v10h4v-10z" fill="#fff" opacity=".75"/>
  <rect transform="matrix(1.3333 0 0 1 -25.667 -57)" x="29" y="64" width="1" height="10" opacity=".01"/>
 </g>
 <g id="sunken-slider-topright" transform="matrix(.75 0 0 .75 .25 42.75)">
  <rect transform="matrix(1.3333 0 0 1.3333 -25.667 -77)" x="26" y="59" width="4" height="4" opacity=".01"/>
  <path d="m9 3v4h4c0-2.216-1.784-4-4-4z" fill="#fff" opacity=".75"/>
 </g>
 <g id="sunken-slider-bottomright" transform="matrix(.75 0 0 .75 .25 47.25)">
  <rect transform="matrix(1.3333 0 0 1.3333 -25.667 -83)" x="26" y="75" width="4" height="4" opacity=".01"/>
  <path d="m9 21v-4h4c0 2.216-1.784 4-4 4z" fill="#fff" opacity=".75"/>
 </g>
 <g id="sunken-slider-left" transform="matrix(-.75 0 0 1 10.75 42)">
  <path d="m9 7v10h4v-10z" fill="#fff" opacity=".75"/>
  <rect transform="matrix(-1.3333 0 0 1 39.667 -57)" x="19" y="64" width="1" height="10" opacity=".01"/>
 </g>
 <g id="sunken-slider-topleft" transform="matrix(-.75 0 0 .75 10.75 42.75)">
  <rect transform="matrix(-1.3333 0 0 1.3333 39.667 -77)" x="19" y="59" width="4" height="4" opacity=".01"/>
  <path d="m9 3v4h4c0-2.216-1.784-4-4-4z" fill="#fff" opacity=".75"/>
 </g>
 <g id="sunken-slider-bottomleft" transform="matrix(-.75 0 0 .75 10.75 47.25)">
  <rect transform="matrix(-1.3333 0 0 1.3333 39.667 -83)" x="19" y="75" width="4" height="4" opacity=".01"/>
  <path d="m9 21v-4h4c0 2.216-1.784 4-4 4z" fill="#fff" opacity=".75"/>
 </g>
 <g id="sunken-slider-top" transform="matrix(0 -.75 -.1 0 6.7 54.75)">
  <rect transform="matrix(0 -10 -1.3333 0 93 257)" x="24" y="59" width="1" height="4" opacity=".01"/>
  <path d="m9 7v10h4v-10z" fill="#fff" opacity=".75"/>
 </g>
 <g id="sunken-slider-bottom" transform="matrix(0 .75 -.1 0 6.7 53.25)">
  <rect transform="matrix(0 -10 1.3333 0 -91 257)" x="24" y="75" width="1" height="4" opacity=".01"/>
  <path d="m9 7v10h4v-10z" fill="#fff" opacity=".75"/>
 </g>
 <rect id="mouseover-slider-center" x="5" y="27" width="1" height="10" fill="#fff" opacity=".51"/>
 <g id="mouseover-slider-right" transform="matrix(.75 0 0 1 .25 20)">
  <path d="m9 7v10h4v-10z" fill="#fff" opacity=".51"/>
  <rect transform="matrix(1.3333 0 0 1 -25.667 -57)" x="29" y="64" width="1" height="10" opacity=".01"/>
 </g>
 <g id="mouseover-slider-topright" transform="matrix(.75 0 0 .75 .25 20.75)">
  <rect transform="matrix(1.3333 0 0 1.3333 -25.667 -77)" x="26" y="59" width="4" height="4" opacity=".01"/>
  <path d="m9 3v4h4c0-2.216-1.784-4-4-4z" fill="#fff" opacity=".51"/>
 </g>
 <g id="mouseover-slider-bottomright" transform="matrix(.75 0 0 .75 .25 25.25)">
  <rect transform="matrix(1.3333 0 0 1.3333 -25.667 -83)" x="26" y="75" width="4" height="4" opacity=".01"/>
  <path d="m9 21v-4h4c0 2.216-1.784 4-4 4z" fill="#fff" opacity=".51"/>
 </g>
 <g id="mouseover-slider-left" transform="matrix(-.75 0 0 1 10.75 20)">
  <path d="m9 7v10h4v-10z" fill="#fff" opacity=".51"/>
  <rect transform="matrix(-1.3333 0 0 1 39.667 -57)" x="19" y="64" width="1" height="10" opacity=".01"/>
 </g>
 <g id="mouseover-slider-topleft" transform="matrix(-.75 0 0 .75 10.75 20.75)">
  <rect transform="matrix(-1.3333 0 0 1.3333 39.667 -77)" x="19" y="59" width="4" height="4" opacity=".01"/>
  <path d="m9 3v4h4c0-2.216-1.784-4-4-4z" fill="#fff" opacity=".51"/>
 </g>
 <g id="mouseover-slider-bottomleft" transform="matrix(-.75 0 0 .75 10.75 25.25)">
  <rect transform="matrix(-1.3333 0 0 1.3333 39.667 -83)" x="19" y="75" width="4" height="4" opacity=".01"/>
  <path d="m9 21v-4h4c0 2.216-1.784 4-4 4z" fill="#fff" opacity=".51"/>
 </g>
 <g id="mouseover-slider-top" transform="matrix(0 -.75 -.1 0 6.7 32.75)">
  <rect transform="matrix(0 -10 -1.3333 0 93 257)" x="24" y="59" width="1" height="4" opacity=".01"/>
  <path d="m9 7v10h4v-10z" fill="#fff" opacity=".51"/>
 </g>
 <g id="mouseover-slider-bottom" transform="matrix(0 .75 -.1 0 6.7 31.25)">
  <rect transform="matrix(0 -10 1.3333 0 -91 257)" x="24" y="75" width="1" height="4" opacity=".01"/>
  <path d="m9 7v10h4v-10z" fill="#fff" opacity=".51"/>
 </g>
 <g id="background-vertical-center" transform="translate(-19 -15)">
  <rect x="38" y="20" width="1" height="10" opacity=".01"/>
 </g>
 <g id="background-horizontal-right" transform="matrix(.75 0 0 1 14.25 20)">
  <path transform="matrix(1.3333 0 0 1 -19 -20)" d="m21 27v10h3 1v-10h-1-3z" opacity=".01"/>
 </g>
 <g id="background-horizontal-topright" transform="matrix(.75 0 0 .75 14.25 20.75)">
  <rect transform="matrix(1.3333 0 0 1.3333 -44.333 -18.333)" x="40" y="15" width="4" height="4" opacity=".01"/>
 </g>
 <g id="background-horizontal-bottomright" transform="matrix(.75 0 0 .75 14.25 25.25)">
  <rect transform="matrix(1.3333 0 0 1.3333 -44.333 -24.333)" x="40" y="31" width="4" height="4" opacity=".01"/>
 </g>
 <g id="background-horizontal-left" transform="matrix(-.75 0 0 1 24.75 20)">
  <path transform="matrix(-1.3333 0 0 1 33 -20)" d="m14 27v10h1 3v-10h-3-1z" opacity=".01"/>
 </g>
 <g id="background-horizontal-topleft" transform="matrix(-.75 0 0 .75 24.75 20.75)">
  <rect transform="matrix(-1.3333 0 0 1.3333 58.333 -18.333)" x="33" y="15" width="4" height="4" opacity=".01"/>
 </g>
 <g id="background-horizontal-bottomleft" transform="matrix(-.75 0 0 .75 24.75 25.25)">
  <rect transform="matrix(-1.3333 0 0 1.3333 58.333 -24.333)" x="33" y="31" width="4" height="4" opacity=".01"/>
 </g>
 <g id="background-horizontal-top" transform="matrix(0 -.75 -.1 0 20.7 32.75)">
  <rect transform="matrix(0 -10 -1.3333 0 34.333 397)" x="38" y="15" width="1" height="4" opacity=".01"/>
 </g>
 <g id="background-horizontal-bottom" transform="matrix(0 .75 -.1 0 20.7 31.25)">
  <rect transform="matrix(0 -10 1.3333 0 -32.333 397)" x="38" y="31" width="1" height="4" opacity=".01"/>
 </g>
 <g id="background-horizontal-center" transform="translate(-19 7)">
  <rect x="38" y="20" width="1" height="10" opacity=".01"/>
 </g>
</svg>

<svg xmlns="http://www.w3.org/2000/svg" width="25" height="64" version="1">
 <rect id="slider-center" style="opacity:0.32;fill:#ffffff" width="1" height="10" x="5" y="5"/>
 <g id="slider-right" transform="matrix(0.75,0,0,1,0.25000072,-1.999998)">
  <path style="opacity:0.32;fill:#ffffff" d="m 9,7 v 10 h 2.666667 V 7 Z"/>
  <rect style="opacity:0.01" width="1" height="10" x="29" y="20" transform="matrix(1.3333333,0,0,1,-25.666667,-13)"/>
 </g>
 <g id="slider-topright" transform="matrix(0.75,0,0,0.75,0.25000072,-1.249998)">
  <rect style="opacity:0.01" width="4" height="4" x="26" y="15" transform="matrix(1.3333333,0,0,1.3333333,-25.666667,-18.333333)"/>
  <path style="opacity:0.32;fill:#ffffff" d="m 9,3 v 4 h 2.666667 C 11.666667,4.784 11.216,3 9,3 Z"/>
 </g>
 <g id="slider-bottomright" transform="matrix(0.75,0,0,0.75,0.25000072,3.250002)">
  <rect style="opacity:0.01" width="4" height="4" x="26" y="31" transform="matrix(1.3333333,0,0,1.3333333,-25.666667,-24.333333)"/>
  <path style="opacity:0.32;fill:#ffffff" d="m 9,21 v -4 h 2.666667 c 0,2.216 -0.450667,4 -2.666667,4 z"/>
 </g>
 <g id="slider-left" transform="matrix(-0.75,0,0,1,10.750001,-1.999998)">
  <path style="opacity:0.32;fill:#ffffff" d="m 9,7 v 10 h 2.666667 V 7 Z"/>
  <rect style="opacity:0.01" width="1" height="10" x="19" y="20" transform="matrix(-1.3333333,0,0,1,39.666667,-13)"/>
 </g>
 <g id="slider-topleft" transform="matrix(-0.75,0,0,0.75,10.750001,-1.249998)">
  <rect style="opacity:0.01" width="4" height="4" x="19" y="15" transform="matrix(-1.3333333,0,0,1.3333333,39.666667,-18.333333)"/>
  <path style="opacity:0.32;fill:#ffffff" d="m 9,3 v 4 h 2.666667 C 11.666667,4.784 11.216,3 9,3 Z"/>
 </g>
 <g id="slider-bottomleft" transform="matrix(-0.75,0,0,0.75,10.750001,3.250002)">
  <rect style="opacity:0.01" width="4" height="4" x="19" y="31" transform="matrix(-1.3333333,0,0,1.3333333,39.666667,-24.333333)"/>
  <path style="opacity:0.32;fill:#ffffff" d="m 9,21 v -4 h 2.666667 c 0,2.216 -0.450667,4 -2.666667,4 z"/>
 </g>
 <g id="slider-top" transform="matrix(0,-0.75,-0.1,0,6.7000007,10.750002)">
  <rect style="opacity:0.01" width="1" height="4" x="24" y="15" transform="matrix(0,-10,-1.3333333,0,34.333333,257)"/>
  <path style="opacity:0.32;fill:#ffffff" d="m 9,7 v 10 h 4 V 7 Z"/>
 </g>
 <g id="slider-bottom" transform="matrix(0,0.75,-0.1,0,6.7000007,9.250002)">
  <rect style="opacity:0.001" width="1" height="4" x="24" y="31" transform="matrix(0,-10,1.3333333,0,-32.333333,257)"/>
  <path style="opacity:0.32;fill:#ffffff" d="m 9,7 v 10 h 4 V 7 Z"/>
 </g>
 <rect id="hint-scrollbar-size" style="fill:#ff00ff" width="8" height="8" x="15" y="44" rx="0" ry="8"/>
 <rect id="hint-tile-center" style="fill:#ff00ff" width="2" height="2" x="18" y="54" rx="0" ry="2"/>
 <g id="background-vertical-right" transform="matrix(0.75,0,0,1,14.250001,-1.999998)">
  <path style="opacity:0.01" transform="matrix(1.3333333,0,0,1,-19.000001,1.999998)" d="M 21 5 L 21 15 L 24 15 L 25 15 L 25 5 L 24 5 L 21 5 z"/>
 </g>
 <g id="background-vertical-topright" transform="matrix(0.75,0,0,0.75,14.250001,-1.249998)">
  <rect style="opacity:0.01" width="4" height="4" x="40" y="15" transform="matrix(1.3333333,0,0,1.3333333,-44.333333,-18.333333)"/>
 </g>
 <g id="background-vertical-bottomright" transform="matrix(0.75,0,0,0.75,14.250001,3.250002)">
  <rect style="opacity:0.01" width="4" height="4" x="40" y="31" transform="matrix(1.3333333,0,0,1.3333333,-44.333333,-24.333333)"/>
 </g>
 <g id="background-vertical-left" transform="matrix(-0.75,0,0,1,24.750001,-1.999998)">
  <path style="opacity:0.01" transform="matrix(-1.3333333,0,0,1,33.000001,1.999998)" d="M 14 5 L 14 15 L 15 15 L 18 15 L 18 5 L 15 5 L 14 5 z"/>
 </g>
 <g id="background-vertical-topleft" transform="matrix(-0.75,0,0,0.75,24.750001,-1.249998)">
  <rect style="opacity:0.01" width="4" height="4" x="33" y="15" transform="matrix(-1.3333333,0,0,1.3333333,58.333333,-18.333333)"/>
 </g>
 <g id="background-vertical-bottomleft" transform="matrix(-0.75,0,0,0.75,24.750001,3.250002)">
  <rect style="opacity:0.01" width="4" height="4" x="33" y="31" transform="matrix(-1.3333333,0,0,1.3333333,58.333333,-24.333333)"/>
 </g>
 <g id="background-vertical-top" transform="matrix(0,-0.75,-0.1,0,20.700001,10.750002)">
  <rect style="opacity:0.01" width="1" height="4" x="38" y="15" transform="matrix(0,-10,-1.3333333,0,34.333333,397)"/>
 </g>
 <g id="background-vertical-bottom" transform="matrix(0,0.75,-0.1,0,20.700001,9.250002)">
  <rect style="opacity:0.01" width="1" height="4" x="38" y="31" transform="matrix(0,-10,1.3333333,0,-32.333333,397)"/>
 </g>
 <rect id="sunken-slider-center" style="opacity:0.75;fill:#ffffff" width="1" height="10" x="5" y="49"/>
 <g id="sunken-slider-right" transform="matrix(0.75,0,0,1,0.25000072,42.000002)">
  <path style="opacity:0.75;fill:#ffffff" d="m 9,7 v 10 h 4 V 7 Z"/>
  <rect style="opacity:0.01" width="1" height="10" x="29" y="64" transform="matrix(1.3333333,0,0,1,-25.666667,-57)"/>
 </g>
 <g id="sunken-slider-topright" transform="matrix(0.75,0,0,0.75,0.25000072,42.750002)">
  <rect style="opacity:0.01" width="4" height="4" x="26" y="59" transform="matrix(1.3333333,0,0,1.3333333,-25.666667,-77)"/>
  <path style="opacity:0.75;fill:#ffffff" d="m 9,3 v 4 h 4 C 13,4.784 11.216,3 9,3 Z"/>
 </g>
 <g id="sunken-slider-bottomright" transform="matrix(0.75,0,0,0.75,0.25000072,47.250002)">
  <rect style="opacity:0.01" width="4" height="4" x="26" y="75" transform="matrix(1.3333333,0,0,1.3333333,-25.666667,-83)"/>
  <path style="opacity:0.75;fill:#ffffff" d="m 9,21 v -4 h 4 c 0,2.216 -1.784,4 -4,4 z"/>
 </g>
 <g id="sunken-slider-left" transform="matrix(-0.75,0,0,1,10.750001,42.000002)">
  <path style="opacity:0.75;fill:#ffffff" d="m 9,7 v 10 h 4 V 7 Z"/>
  <rect style="opacity:0.01" width="1" height="10" x="19" y="64" transform="matrix(-1.3333333,0,0,1,39.666667,-57)"/>
 </g>
 <g id="sunken-slider-topleft" transform="matrix(-0.75,0,0,0.75,10.750001,42.750002)">
  <rect style="opacity:0.01" width="4" height="4" x="19" y="59" transform="matrix(-1.3333333,0,0,1.3333333,39.666667,-77)"/>
  <path style="opacity:0.75;fill:#ffffff" d="m 9,3 v 4 h 4 C 13,4.784 11.216,3 9,3 Z"/>
 </g>
 <g id="sunken-slider-bottomleft" transform="matrix(-0.75,0,0,0.75,10.750001,47.250002)">
  <rect style="opacity:0.01" width="4" height="4" x="19" y="75" transform="matrix(-1.3333333,0,0,1.3333333,39.666667,-83)"/>
  <path style="opacity:0.75;fill:#ffffff" d="m 9,21 v -4 h 4 c 0,2.216 -1.784,4 -4,4 z"/>
 </g>
 <g id="sunken-slider-top" transform="matrix(0,-0.75,-0.1,0,6.7000007,54.750002)">
  <rect style="opacity:0.01" width="1" height="4" x="24" y="59" transform="matrix(0,-10,-1.3333333,0,93,257)"/>
  <path style="opacity:0.75;fill:#ffffff" d="m 9,7 v 10 h 4 V 7 Z"/>
 </g>
 <g id="sunken-slider-bottom" transform="matrix(0,0.75,-0.1,0,6.7000007,53.250002)">
  <rect style="opacity:0.01" width="1" height="4" x="24" y="75" transform="matrix(0,-10,1.3333333,0,-91,257)"/>
  <path style="opacity:0.75;fill:#ffffff" d="m 9,7 v 10 h 4 V 7 Z"/>
 </g>
 <rect id="mouseover-slider-center" style="opacity:0.51;fill:#ffffff" width="1" height="10" x="5" y="27"/>
 <g id="mouseover-slider-right" transform="matrix(0.75,0,0,1,0.25000173,20.000002)">
  <path style="opacity:0.51;fill:#ffffff" d="m 9,7 v 10 h 3.999998 V 7 Z"/>
  <rect style="opacity:0.01" width="1" height="10" x="29" y="64" transform="matrix(1.3333333,0,0,1,-25.666667,-57)"/>
 </g>
 <g id="mouseover-slider-topright" transform="matrix(0.75,0,0,0.75,0.25000173,20.750002)">
  <rect style="opacity:0.01" width="4" height="4" x="26" y="59" transform="matrix(1.3333333,0,0,1.3333333,-25.666667,-77)"/>
  <path style="opacity:0.51;fill:#ffffff" d="m 9,3 v 4 h 3.999998 C 12.999998,4.784 11.216,3 9,3 Z"/>
 </g>
 <g id="mouseover-slider-bottomright" transform="matrix(0.75,0,0,0.75,0.25000173,25.250002)">
  <rect style="opacity:0.01" width="4" height="4" x="26" y="75" transform="matrix(1.3333333,0,0,1.3333333,-25.666667,-83)"/>
  <path style="opacity:0.51;fill:#ffffff" d="m 9,21 v -4 h 3.999998 c 0,2.216 -1.783998,4 -3.999998,4 z"/>
 </g>
 <g id="mouseover-slider-left" transform="matrix(-0.75,0,0,1,10.750002,20.000002)">
  <path style="opacity:0.51;fill:#ffffff" d="m 9,7 v 10 h 4.000003 V 7 Z"/>
  <rect style="opacity:0.01" width="1" height="10" x="19" y="64" transform="matrix(-1.3333333,0,0,1,39.666667,-57)"/>
 </g>
 <g id="mouseover-slider-topleft" transform="matrix(-0.75,0,0,0.75,10.750002,20.750002)">
  <rect style="opacity:0.01" width="4" height="4" x="19" y="59" transform="matrix(-1.3333333,0,0,1.3333333,39.666667,-77)"/>
  <path style="opacity:0.51;fill:#ffffff" d="m 9,3 v 4 h 4.000003 C 13.000003,4.784 11.216,3 9,3 Z"/>
 </g>
 <g id="mouseover-slider-bottomleft" transform="matrix(-0.75,0,0,0.75,10.750002,25.250002)">
  <rect style="opacity:0.01" width="4" height="4" x="19" y="75" transform="matrix(-1.3333333,0,0,1.3333333,39.666667,-83)"/>
  <path style="opacity:0.51;fill:#ffffff" d="m 9,21 v -4 h 4.000003 c 0,2.216 -1.784003,4 -4.000003,4 z"/>
 </g>
 <g id="mouseover-slider-top" transform="matrix(0,-0.75,-0.1,0,6.7000017,32.750002)">
  <rect style="opacity:0.01" width="1" height="4" x="24" y="59" transform="matrix(0,-10,-1.3333333,0,93,257)"/>
  <path style="opacity:0.51;fill:#ffffff" d="m 9,7 v 10 h 4 V 7 Z"/>
 </g>
 <g id="mouseover-slider-bottom" transform="matrix(0,0.75,-0.1,0,6.7000017,31.250002)">
  <rect style="opacity:0.01" width="1" height="4" x="24" y="75" transform="matrix(0,-10,1.3333333,0,-91,257)"/>
  <path style="opacity:0.51;fill:#ffffff" d="m 9,7 v 10 h 4 V 7 Z"/>
 </g>
 <g id="background-vertical-center" transform="translate(-18.999999,-14.999998)">
  <rect style="opacity:0.01" width="1" height="10" x="38" y="20"/>
 </g>
 <g id="background-horizontal-right" transform="matrix(0.75,0,0,1,14.250002,20.000003)">
  <path style="opacity:0.01" transform="matrix(1.3333333,0,0,1,-19.000003,-20.000003)" d="M 21 27 L 21 37 L 24 37 L 25 37 L 25 27 L 24 27 L 21 27 z"/>
 </g>
 <g id="background-horizontal-topright" transform="matrix(0.75,0,0,0.75,14.250002,20.750003)">
  <rect style="opacity:0.01" width="4" height="4" x="40" y="15" transform="matrix(1.3333333,0,0,1.3333333,-44.333333,-18.333333)"/>
 </g>
 <g id="background-horizontal-bottomright" transform="matrix(0.75,0,0,0.75,14.250002,25.250003)">
  <rect style="opacity:0.01" width="4" height="4" x="40" y="31" transform="matrix(1.3333333,0,0,1.3333333,-44.333333,-24.333333)"/>
 </g>
 <g id="background-horizontal-left" transform="matrix(-0.75,0,0,1,24.750002,20.000003)">
  <path style="opacity:0.01" transform="matrix(-1.3333333,0,0,1,33.000003,-20.000003)" d="M 14 27 L 14 37 L 15 37 L 18 37 L 18 27 L 15 27 L 14 27 z"/>
 </g>
 <g id="background-horizontal-topleft" transform="matrix(-0.75,0,0,0.75,24.750002,20.750003)">
  <rect style="opacity:0.01" width="4" height="4" x="33" y="15" transform="matrix(-1.3333333,0,0,1.3333333,58.333333,-18.333333)"/>
 </g>
 <g id="background-horizontal-bottomleft" transform="matrix(-0.75,0,0,0.75,24.750002,25.250003)">
  <rect style="opacity:0.01" width="4" height="4" x="33" y="31" transform="matrix(-1.3333333,0,0,1.3333333,58.333333,-24.333333)"/>
 </g>
 <g id="background-horizontal-top" transform="matrix(0,-0.75,-0.1,0,20.700002,32.750003)">
  <rect style="opacity:0.01" width="1" height="4" x="38" y="15" transform="matrix(0,-10,-1.3333333,0,34.333333,397)"/>
 </g>
 <g id="background-horizontal-bottom" transform="matrix(0,0.75,-0.1,0,20.700002,31.250003)">
  <rect style="opacity:0.01" width="1" height="4" x="38" y="31" transform="matrix(0,-10,1.3333333,0,-32.333333,397)"/>
 </g>
 <g id="background-horizontal-center" transform="translate(-18.999998,7.000003)">
  <rect style="opacity:0.01" width="1" height="10" x="38" y="20"/>
 </g>
</svg>
